X:0027
T:The Widows Rant.
M:6/8
L:1/8
Q:3/8=128
I: :: ::
Z:Jack Campin * www.campin.me.uk * 2009
K:A Mixolydian
c   |Ace ece|fdf ecA|Ace edc|BGB B2
c   |Ace ece|fdf ecA|cec BdB|cAA A2:|
f/g/|a2f gfe|agf ecA|a2f g2d|BGB Bf
g   |a2f gfe|agf ecA|cec BdB|cAA A2:|

